public/images/li.svg

<svg width="33" height="33" viewBox="0 0 33 33" fill="none" xmlns="http://www.w3.org/2000/svg">
<path d="M1.6665 5.66667C1.6665 3.64162 3.30813 2 5.33317 2H27.3332C29.3582 2 30.9998 3.64162 30.9998 5.66667V27.6667C30.9998 29.6917 29.3582 31.3333 27.3332 31.3333H5.33317C3.30813 31.3333 1.6665 29.6917 1.6665 27.6667V5.66667Z" fill="#FFF8EB"/>
<path fill-rule="evenodd" clip-rule="evenodd" d="M8.99984 14.8333V24Z" fill="#FFF8EB"/>
<path fill-rule="evenodd" clip-rule="evenodd" d="M8.99984 9.33333V9.35167Z" fill="#FFF8EB"/>
<path fill-rule="evenodd" clip-rule="evenodd" d="M16.3332 24V14.8333Z" fill="#FFF8EB"/>
<path fill-rule="evenodd" clip-rule="evenodd" d="M23.6665 24V18.5C23.6665 16.475 22.0249 14.8333 19.9998 14.8333C17.9748 14.8333 16.3332 16.475 16.3332 18.5" fill="#FFF8EB"/>
<path d="M8.99984 14.8333V24M8.99984 9.33333V9.35167M16.3332 24V14.8333M23.6665 24V18.5C23.6665 16.475 22.0249 14.8333 19.9998 14.8333C17.9748 14.8333 16.3332 16.475 16.3332 18.5M5.33317 31.3333H27.3332C29.3582 31.3333 30.9998 29.6917 30.9998 27.6667V5.66667C30.9998 3.64162 29.3582 2 27.3332 2H5.33317C3.30813 2 1.6665 3.64162 1.6665 5.66667V27.6667C1.6665 29.6917 3.30813 31.3333 5.33317 31.3333Z" stroke="#343434" stroke-width="3" stroke-linecap="round" stroke-linejoin="round"/>
</svg>

<svg width="33" height="33" fill="none" xmlns="http://www.w3.org/2000/svg"><path d="M1.667 5.667A3.667 3.667 0 0 1 5.332 2h22A3.667 3.667 0 0 1 31 5.667v22a3.667 3.667 0 0 1-3.667 3.666h-22a3.667 3.667 0 0 1-3.667-3.666v-22Z" fill="#FFF8EB"/><path fill-rule="evenodd" clip-rule="evenodd" d="M9 14.833V24ZM9 9.333v.019ZM16.333 24v-9.167ZM23.666 24v-5.5a3.667 3.667 0 0 0-7.333 0" fill="#FFF8EB"/><path d="M9 14.833V24M9 9.333v.019M16.333 24v-9.167M23.667 24v-5.5a3.667 3.667 0 0 0-7.334 0m-11 12.833h22A3.667 3.667 0 0 0 31 27.667v-22A3.667 3.667 0 0 0 27.333 2h-22a3.667 3.667 0 0 0-3.667 3.667v22a3.667 3.667 0 0 0 3.667 3.666Z" stroke="#343434" stroke-width="3" stroke-linecap="round" stroke-linejoin="round"/></svg>
